app/img/icons/logo-fixed.svg

<svg width="47" height="47" viewBox="0 0 47 47" fill="none" xmlns="http://www.w3.org/2000/svg">
<rect x="23.5" width="33.234" height="33.234" transform="rotate(45 23.5 0)" fill="url(#paint0_linear)"/>
<ellipse cx="23.4998" cy="23.4998" rx="12.5886" ry="12.5886" fill="#111111"/>
<path d="M21.3861 31.2498C19.9168 31.2498 18.8068 30.9938 18.0561 30.4818C17.3214 29.9698 16.9541 29.3458 16.9541 28.6098C16.9541 28.0658 17.1138 27.6338 17.4332 27.3138C17.7686 26.9778 18.2078 26.8098 18.7509 26.8098C18.8786 26.8098 19.0064 26.8258 19.1342 26.8578C19.262 26.8738 19.3498 26.8818 19.3977 26.8818L19.7092 26.9298V30.5298C19.821 30.5938 19.9328 30.6338 20.0445 30.6498C20.3161 30.7298 20.6035 30.7698 20.907 30.7698C22.8236 30.7698 23.7818 29.2098 23.7818 26.0898V14.8098L22.3444 14.4498V14.0898H29.1722V14.4498L27.7347 14.8098V26.0898C27.7347 27.7538 27.2157 29.0338 26.1775 29.9298C25.1394 30.8098 23.5423 31.2498 21.3861 31.2498Z" fill="white"/>
<defs>
<linearGradient id="paint0_linear" x1="23.5" y1="1.74479" x2="56.734" y2="33.234" gradientUnits="userSpaceOnUse">
<stop stop-color="#F93A3A"/>
<stop offset="1" stop-color="#A52929"/>
</linearGradient>
</defs>
</svg>

<svg width="47" height="47" fill="none" xmlns="http://www.w3.org/2000/svg"><path transform="rotate(45 23.5 0)" fill="url(#paint0_linear)" d="M23.5 0h33.234v33.234H23.5z"/><circle cx="23.5" cy="23.5" fill="#111" r="12.589"/><path d="M21.386 31.25c-1.47 0-2.58-.256-3.33-.768-.735-.512-1.102-1.136-1.102-1.872 0-.544.16-.976.48-1.296.335-.336.774-.504 1.317-.504.128 0 .255.016.383.048.128.016.216.024.264.024l.311.048v3.6a.944.944 0 00.335.12c.272.08.56.12.863.12 1.917 0 2.875-1.56 2.875-4.68V14.81l-1.438-.36v-.36h6.828v.36l-1.437.36v11.28c0 1.664-.52 2.944-1.558 3.84-1.038.88-2.635 1.32-4.79 1.32z" fill="#fff"/><defs><linearGradient id="paint0_linear" x1="23.5" y1="1.745" x2="56.734" y2="33.234" gradientUnits="userSpaceOnUse"><stop stop-color="#F93A3A"/><stop offset="1" stop-color="#A52929"/></linearGradient></defs></svg>
